images/icons/PBS-closed_caption.svg

<?xml version="1.0" encoding="UTF-8" standalone="no"?>
<svg width="256px" height="256px" viewBox="0 0 256 256" version="1.1" xmlns="http://www.w3.org/2000/svg" xmlns:xlink="http://www.w3.org/1999/xlink">
    <!-- Generator: Sketch 39.1 (31720) - http://www.bohemiancoding.com/sketch -->
    <title>PBS-closed_caption</title>
    <desc>Created with Sketch.</desc>
    <defs></defs>
    <g id="Page-1" stroke="none" stroke-width="1" fill="none" fill-rule="evenodd">
        <g id="PBS-closed_caption">
            <rect id="BG" fill="#000000" x="14" y="51" width="227.742595" height="152.951004" rx="2"></rect>
            <path d="M102.181641,105.462891 C98.3261526,105.462891 95.3183702,107.041976 93.1582031,110.200195 C90.9980361,113.358414 89.9179688,117.712863 89.9179688,123.263672 C89.9179688,134.802792 94.3065967,140.572266 103.083984,140.572266 C105.736341,140.572266 108.306628,140.203129 110.794922,139.464844 C113.283216,138.726559 115.785144,137.837896 118.300781,136.798828 L118.300781,150.498047 C113.29685,152.712902 107.63675,153.820312 101.320312,153.820312 C92.269486,153.820312 85.3310788,151.195339 80.5048828,145.945312 C75.6786868,140.695286 73.265625,133.107472 73.265625,123.181641 C73.265625,116.974578 74.4345586,111.519555 76.7724609,106.816406 C79.1103633,102.113258 82.4736109,98.497083 86.8623047,95.9677734 C91.2509985,93.4384639 96.4120797,92.1738281 102.345703,92.1738281 C108.826204,92.1738281 115.019502,93.5820172 120.925781,96.3984375 L115.962891,109.154297 C113.748036,108.115229 111.533214,107.240238 109.318359,106.529297 C107.103505,105.818356 104.724622,105.462891 102.181641,105.462891 L102.181641,105.462891 Z M160.009766,105.462891 C156.154278,105.462891 153.146495,107.041976 150.986328,110.200195 C148.826161,113.358414 147.746094,117.712863 147.746094,123.263672 C147.746094,134.802792 152.134722,140.572266 160.912109,140.572266 C163.564466,140.572266 166.134753,140.203129 168.623047,139.464844 C171.111341,138.726559 173.613269,137.837896 176.128906,136.798828 L176.128906,150.498047 C171.124975,152.712902 165.464875,153.820312 159.148438,153.820312 C150.097611,153.820312 143.159204,151.195339 138.333008,145.945312 C133.506812,140.695286 131.09375,133.107472 131.09375,123.181641 C131.09375,116.974578 132.262684,111.519555 134.600586,106.816406 C136.938488,102.113258 140.301736,98.497083 144.69043,95.9677734 C149.079124,93.4384639 154.240205,92.1738281 160.173828,92.1738281 C166.654329,92.1738281 172.847627,93.5820172 178.753906,96.3984375 L173.791016,109.154297 C171.576161,108.115229 169.361339,107.240238 167.146484,106.529297 C164.93163,105.818356 162.552747,105.462891 160.009766,105.462891 L160.009766,105.462891 Z" id="CC" fill="#FFFFFF"></path>
        </g>
    </g>
</svg>

<svg width="256" height="256" viewBox="0 0 256 256" xmlns="http://www.w3.org/2000/svg"><title>PBS-closed_caption</title><g fill="none" fill-rule="evenodd"><rect fill="#000" x="14" y="51" width="227.743" height="152.951" rx="2"/><path d="M102.182 105.463c-3.856 0-6.864 1.579-9.024 4.737-2.16 3.158-3.24 7.513-3.24 13.064 0 11.539 4.389 17.308 13.166 17.308 2.652 0 5.223-.369 7.71-1.107a77.145 77.145 0 0 0 7.507-2.666v13.699c-5.004 2.215-10.664 3.322-16.98 3.322-9.052 0-15.99-2.625-20.816-7.875-4.826-5.25-7.24-12.838-7.24-22.763 0-6.207 1.17-11.662 3.507-16.366 2.338-4.703 5.702-8.319 10.09-10.848 4.389-2.53 9.55-3.794 15.484-3.794 6.48 0 12.674 1.408 18.58 4.224l-4.963 12.756a55.798 55.798 0 0 0-6.645-2.625c-2.214-.71-4.593-1.066-7.136-1.066zm57.828 0c-3.856 0-6.864 1.579-9.024 4.737-2.16 3.158-3.24 7.513-3.24 13.064 0 11.539 4.389 17.308 13.166 17.308 2.652 0 5.223-.369 7.711-1.107a77.145 77.145 0 0 0 7.506-2.666v13.699c-5.004 2.215-10.664 3.322-16.98 3.322-9.051 0-15.99-2.625-20.816-7.875-4.826-5.25-7.24-12.838-7.24-22.763 0-6.207 1.17-11.662 3.508-16.366 2.337-4.703 5.7-8.319 10.09-10.848 4.388-2.53 9.55-3.794 15.483-3.794 6.48 0 12.674 1.408 18.58 4.224l-4.963 12.756a55.798 55.798 0 0 0-6.645-2.625c-2.214-.71-4.593-1.066-7.136-1.066z" fill="#FFF"/></g></svg>
